svgs/light/arrow-down-to-dotted-line.svg

<svg xmlns="http://www.w3.org/2000/svg" viewBox="0 0 448 512"><!-- Font Awesome Pro 6.0.0-alpha2 by @fontawesome - https://fontawesome.com License - https://fontawesome.com/license (Commercial License) --><path d="M128 424C114.744 424 104 434.746 104 448S114.744 472 128 472S152 461.254 152 448S141.256 424 128 424ZM224 424C210.744 424 200 434.746 200 448S210.744 472 224 472S248 461.254 248 448S237.256 424 224 424ZM32 424C18.744 424 8 434.746 8 448S18.744 472 32 472S56 461.254 56 448S45.256 424 32 424ZM320 424C306.744 424 296 434.746 296 448S306.744 472 320 472S344 461.254 344 448S333.256 424 320 424ZM416 424C402.744 424 392 434.746 392 448S402.744 472 416 472S440 461.254 440 448S429.256 424 416 424ZM212.688 363.312C215.812 366.437 219.906 367.999 224 367.999S232.188 366.437 235.312 363.312L379.312 219.312C385.562 213.062 385.562 202.937 379.312 196.687S362.937 190.437 356.688 196.687L240 313.374V47.999C240 39.155 232.844 31.999 224 31.999S208 39.155 208 47.999V313.374L91.312 196.687C85.062 190.437 74.937 190.437 68.688 196.687S62.438 213.062 68.688 219.312L212.688 363.312Z"/></svg>

<svg xmlns="http://www.w3.org/2000/svg" viewBox="0 0 448 512"><!--! Font Awesome Pro 6.3.0 by @fontawesome - https://fontawesome.com License - https://fontawesome.com/license (Commercial License) Copyright 2023 Fonticons, Inc. --><path d="M128 424c-13.26 0-24 10.75-24 24S114.7 472 128 472S152 461.3 152 448S141.3 424 128 424zM224 424c-13.26 0-24 10.75-24 24s10.74 24 24 24s24-10.75 24-24S237.3 424 224 424zM32 424c-13.26 0-24 10.75-24 24S18.74 472 32 472S56 461.3 56 448S45.26 424 32 424zM320 424c-13.26 0-24 10.75-24 24s10.74 24 24 24s24-10.75 24-24S333.3 424 320 424zM416 424c-13.26 0-24 10.75-24 24s10.74 24 24 24s24-10.75 24-24S429.3 424 416 424zM212.7 363.3C215.8 366.4 219.9 367.1 224 367.1s8.188-1.562 11.31-4.688l144-144c6.25-6.25 6.25-16.38 0-22.62s-16.38-6.25-22.62 0L240 313.4V47.1c0-8.844-7.156-16-16-16s-16 7.156-16 16v265.4L91.31 196.7c-6.25-6.25-16.38-6.25-22.62 0s-6.25 16.38 0 22.62L212.7 363.3z"/></svg>
